src/icons/outline/navigation/chevron-right.svg

<svg width="24" height="24" viewBox="0 0 24 24" fill="none" xmlns="http://www.w3.org/2000/svg">
<g clip-path="url(#clip0_1_2449)">
<path d="M18.5178 13.1285C18.672 12.9792 18.7905 12.8008 18.8755 12.6156L18.8802 12.6047C18.9559 12.4164 19 12.2058 19 12.0011C19 11.8056 18.9683 11.5888 18.8755 11.3866C18.7905 11.2015 18.672 11.023 18.5178 10.8737L8.58858 1.26444C8.4015 1.08339 8.16482 1 7.93236 1C7.6999 1 7.46322 1.0834 7.27614 1.26444C6.90796 1.62077 6.90796 2.21271 7.27614 2.56903L17.0222 12.0011L7.27614 21.4332C6.90795 21.7895 6.90795 22.3815 7.27614 22.7378C7.63738 23.0874 8.22733 23.0874 8.58858 22.7378L18.5178 13.1285Z" fill="#1D1B20"/>
</g>
<defs>
<clipPath id="clip0_1_2449">
<rect width="24" height="24" fill="white"/>
</clipPath>
</defs>
</svg>

<svg xmlns="http://www.w3.org/2000/svg" width="24" height="24" fill="none" viewBox="0 0 24 24"><g clip-path="url(#a)"><path fill="currentColor" d="M18.518 13.129a1.7 1.7 0 0 0 .357-.513l.005-.011c.076-.189.12-.4.12-.604 0-.195-.032-.412-.125-.614a1.7 1.7 0 0 0-.357-.513l-9.93-9.61A.94.94 0 0 0 7.933 1a.94.94 0 0 0-.656.264.91.91 0 0 0 0 1.305l9.746 9.432-9.746 9.432a.91.91 0 0 0 0 1.305c.361.35.951.35 1.313 0z"/></g><defs><clipPath id="a"><path fill="currentColor" d="M0 0h24v24H0z"/></clipPath></defs></svg>
